assets/images/fire.svg

<svg width="18" height="23" viewBox="0 0 18 23" fill="none" xmlns="http://www.w3.org/2000/svg">
<path d="M5.4678 7.39451L5.46555 7.39634L5.46341 7.39842L5.4678 7.39451ZM15.4219 7.20798C15.3523 7.14093 15.2751 7.08226 15.1919 7.03317C15.0741 6.96383 14.9433 6.9194 14.8076 6.90261C14.672 6.88583 14.5343 6.89705 14.4031 6.93558C14.272 6.97412 14.1501 7.03915 14.0451 7.12665C13.9401 7.21415 13.8541 7.32227 13.7925 7.44431C13.448 8.123 12.9729 8.727 12.3945 9.22165C12.483 8.72326 12.5276 8.21807 12.5278 7.71188C12.5297 6.17198 12.1234 4.65909 11.3505 3.32725C10.5775 1.9954 9.4654 0.892171 8.12741 0.129883C7.98002 0.0463305 7.81382 0.00159306 7.6444 -0.000131297C7.47498 -0.00185565 7.3079 0.0394896 7.15884 0.120025C7.00977 0.20056 6.88362 0.317646 6.7922 0.460294C6.70078 0.602942 6.6471 0.766477 6.6362 0.935553C6.58024 1.88373 6.33236 2.81067 5.90759 3.66022C5.48282 4.50977 4.88999 5.26424 4.16503 5.87791L3.93456 6.06541C3.17648 6.5755 2.50546 7.20431 1.94726 7.92771C1.07958 9.02082 0.478506 10.3011 0.191718 11.6669C-0.0950709 13.0327 -0.0596893 14.4466 0.295056 15.7964C0.649802 17.1462 1.31415 18.3947 2.23543 19.4431C3.1567 20.4914 4.30956 21.3107 5.60257 21.8359C5.75439 21.898 5.91914 21.9217 6.08229 21.905C6.24545 21.8883 6.40198 21.8317 6.5381 21.7402C6.67422 21.6488 6.78573 21.5252 6.8628 21.3804C6.93987 21.2357 6.98013 21.0741 6.98003 20.9101C6.97932 20.8041 6.96252 20.6987 6.93023 20.5976C6.7065 19.7567 6.64208 18.8813 6.74028 18.0166C7.68652 19.8013 9.20542 21.216 11.0528 22.0332C11.2783 22.1341 11.5332 22.1476 11.7681 22.0713C13.2277 21.6002 14.5425 20.7637 15.5878 19.6413C16.633 18.5189 17.3739 17.1479 17.74 15.6586C18.1061 14.1692 18.0853 12.611 17.6796 11.1319C17.2739 9.65284 16.4967 8.30209 15.4219 7.20798ZM11.5171 20.039C10.6454 19.5973 9.87649 18.977 9.26028 18.2185C8.64406 17.46 8.19438 16.5804 7.94046 15.6367C7.86291 15.319 7.80293 14.9972 7.76077 14.6728C7.73221 14.4663 7.63981 14.2738 7.4965 14.1224C7.35318 13.9709 7.16612 13.868 6.96146 13.8281C6.89841 13.8157 6.8343 13.8095 6.77003 13.8096C6.59427 13.8095 6.42161 13.8558 6.26944 13.9437C6.11728 14.0317 5.991 14.1582 5.90333 14.3106C5.0736 15.7417 4.65633 17.3746 4.69776 19.0283C3.968 18.4609 3.35811 17.7543 2.90344 16.9495C2.44876 16.1447 2.15835 15.2576 2.04903 14.3397C1.93971 13.4218 2.01366 12.4914 2.26658 11.6023C2.51951 10.7131 2.94639 9.88308 3.52247 9.16016C3.95989 8.592 4.48756 8.09945 5.08447 7.70216C5.11032 7.68548 5.1351 7.66722 5.15869 7.64747C5.15869 7.64747 5.45538 7.40199 5.46552 7.39637C6.89022 6.19134 7.90353 4.57189 8.36426 2.76368C9.45383 3.77092 10.1804 5.10971 10.431 6.57219C10.6817 8.03467 10.4425 9.53899 9.75049 10.8516C9.65907 11.0267 9.62157 11.225 9.64271 11.4215C9.66386 11.6179 9.74271 11.8037 9.86932 11.9554C9.99592 12.107 10.1646 12.2178 10.3541 12.2737C10.5436 12.3297 10.7454 12.3282 10.9341 12.2696C12.4659 11.7894 13.8138 10.8515 14.7964 9.58207C15.3869 10.4544 15.773 11.4487 15.9259 12.4909C16.0787 13.5332 15.9944 14.5965 15.6792 15.6016C15.364 16.6068 14.826 17.5278 14.1054 18.2961C13.3847 19.0644 12.5 19.6602 11.5171 20.0391L11.5171 20.039Z" fill="white"/>
</svg>

<svg width="18" height="23" fill="none" xmlns="http://www.w3.org/2000/svg"><path d="m5.468 7.395-.002.001-.003.002.005-.003Zm9.954-.187a1.24 1.24 0 0 0-.23-.175 1 1 0 0 0-1.4.411 5.783 5.783 0 0 1-1.397 1.778A8.714 8.714 0 0 0 8.128.13a1 1 0 0 0-1.492.806 7.017 7.017 0 0 1-2.471 4.942l-.23.187a8.513 8.513 0 0 0-1.988 1.863 8.984 8.984 0 0 0 3.656 13.908.998.998 0 0 0 1.327-1.238 6.977 6.977 0 0 1-.19-2.581 9.004 9.004 0 0 0 4.313 4.016c.225.101.48.115.715.038a8.995 8.995 0 0 0 3.654-14.863Zm-3.905 12.831a6.962 6.962 0 0 1-3.577-4.402 8.904 8.904 0 0 1-.18-.964 1 1 0 0 0-1.857-.362 8.958 8.958 0 0 0-1.205 4.717A6.986 6.986 0 0 1 3.522 9.16a6.555 6.555 0 0 1 1.562-1.458.744.744 0 0 0 .075-.055s.296-.245.307-.25a8.968 8.968 0 0 0 2.898-4.633 6.736 6.736 0 0 1 1.386 8.088 1 1 0 0 0 1.184 1.418 7.856 7.856 0 0 0 3.862-2.688 7.002 7.002 0 0 1-3.279 10.457Z" fill="#fff"/></svg>
